actions/22x22-light/format-list-unordered.svg

<svg xmlns="http://www.w3.org/2000/svg" viewBox="0 0 22 22">
 <defs id="defs3051">
   <style type="text/css" id="current-color-scheme">
     .ColorScheme-Text {
       color:#4d4d4d;
     }
     </style>
 </defs>
   <path
      style="fill:currentColor;fill-opacity:1;stroke:none"
      d="m4 3c-.5522847 0-1 .4477153-1 1s .4477153 1 1 1 1-.4477153 1-1-.4477153-1-1-1zm6 0v1h9v-1zm0 2v1h6v-1zm-6 4c-.5522847 0-1 .4477153-1 1 0 .552285.4477153 1 1 1s1-.447715 1-1c0-.5522847-.4477153-1-1-1zm6 0v1h9v-1zm0 2v1h2v-1zm-6 4c-.5522847 0-1 .447715-1 1s .4477153 1 1 1 1-.447715 1-1-.4477153-1-1-1zm6 0v1h9v-1zm0 2v1h6v-1zm7 1v1h2v-1z"
      class="ColorScheme-Text" />
</svg>

<svg xmlns="http://www.w3.org/2000/svg" viewBox="0 0 22 22">
  <defs id="defs3051">
    <style type="text/css" id="current-color-scheme">
      .ColorScheme-Text {
        color:#4d4d4d;
      }
      </style>
  </defs>
 <path 
    style="fill:currentColor;fill-opacity:1;stroke:none" 
    d="M 4 3 C 3.4477153 3 3 3.4477153 3 4 C 3 4.5522847 3.4477153 5 4 5 C 4.5522847 5 5 4.5522847 5 4 C 5 3.4477153 4.5522847 3 4 3 z M 10 3 L 10 4 L 19 4 L 19 3 L 10 3 z M 10 5 L 10 6 L 16 6 L 16 5 L 10 5 z M 4 9 C 3.4477153 9 3 9.4477153 3 10 C 3 10.552285 3.4477153 11 4 11 C 4.5522847 11 5 10.552285 5 10 C 5 9.4477153 4.5522847 9 4 9 z M 10 9 L 10 10 L 19 10 L 19 9 L 10 9 z M 10 11 L 10 12 L 12 12 L 12 11 L 10 11 z M 4 15 C 3.4477153 15 3 15.447715 3 16 C 3 16.552285 3.4477153 17 4 17 C 4.5522847 17 5 16.552285 5 16 C 5 15.447715 4.5522847 15 4 15 z M 10 15 L 10 16 L 19 16 L 19 15 L 10 15 z M 10 17 L 10 18 L 16 18 L 16 17 L 10 17 z M 17 18 L 17 19 L 19 19 L 19 18 L 17 18 z "
    class="ColorScheme-Text"
    />  
</svg>
